X: 488
T: Offerdalspolska efter Gustav Persa
R: Polska
S: efter Gustav Persa
N: Gammelpolska Föllinge
Z: Håkan Lidén, 2008-09-27
O: Jämtland
Q: 1/4=108
M: 3/4
L: 1/8
K: Dlyd
A>f f<d e>c | (3def (3fed (3efg | a>f f<d e>c | (3def f<d e2 |
A>f f<d e>c | (3def (3fed (3efg | a>f f<d e>d | (3cBc d4 :|
|: (3ABA G<A F>A | (3cBA (3GAB A2 | (3ABA G<A F>A | (3cBA (3GAB A2 | 
(3ABA G<A F>A | (3cBA (3GAB A>d | d>e (3fgf e>c |d2 d4 :|
(:musicend:)

Noterad i 9/8:
(:music:)
